X:1
T:MAITE
T:P. Sorozabal
%%score 1 ( 2 3 ) 4 5
L:1/8
Q:1/4=120
M:5/8
K:Bb
V:1 treble nm="Soprano" snm="S."
V:2 treble nm="Alto" snm="A."
V:3 treble 
V:4 treble-8 nm="Tenor" snm="T."
V:5 bass nm="Bass" snm="B."
V:1
 B B3/2 B/ A3/2 A/ | G D2- D2 | d d3/2 d/ c3/2 c/ | B3- B2 | B B3/2 B/ c3/2 c/ | d A2- A2 | %6
w: Le- jos de.a- quel ins-|tan- te _|le- jos de.a- quel lu-|gar _|el co- ra- zón a-|man- te _|
 A A3/2 A/ A3/2 A/ | A3- A2 | B B3/2 B/ A3/2 A/ | G D2- D2 | d d3/2 d/ c3/2 c/ | B3- B2 | %12
w: sien- to re- su- ci-|tar _|vuel vo tu.i- ma- gen|be- lla _|en mi me- mo- ria.a|ver _|
 e e3/2 e/ d3/2 d/ | c c2- c2 | A A3/2 A/ B3/2 c/ | d3- d2 |[K:G] d B3/2 d/ e3/2 e/ | %17
w: co- mo.un tem- blor de.es-|tre- lla _|muer- ta.al a- ma- ne-|cer _|Mai- te yo no te.ol-|
 d B3/2 d/ e3/2 e/ | e d3/2 c/ _B3/2 c/ | d3- d2 | D F3/2 A/ c3/2 c/ | B d3/2 B/ d3/2 B/ | %22
w: vi- do y nun- ca|nun- ca te.he de.ol- vi-|dar _|aun- que de mi te.a-|le- jes le- guas de|
 A c3/2 A/ F3/2 E/ | D3- D2 | d B3/2 d/ e3/2 e/ | d B3/2 d/ e3/2 e/ | e d3/2 c/ B3/2 d/ | c3- c2 | %28
w: tie- rra de tie- rra.y|mar _|Mai- te si.un di- a|sa- bes que.he muer- to.au-|sen- te de tu que-|rer _|
 D F3/2 A/ c3/2 e/ | B d3/2 B/ d3/2 B/ | A c3/2 A/ c3/2 F/ | G3- G2 :| z5 | e d2- d2 | %34
w: del sue- ño de la|muer- te pa- ra que-|rer- te des- per- ta-|ré _||Mai- te _|
 [ce]3- [ce]2 | [dg]3- !fermata![dg]2 |] %36
w: Mai _|te _|
V:2
 B B3/2 B/ A3/2 A/ | G D2- D2 | B B3/2 B/ A3/2 A/ | G3- G2 | G G3/2 G/ G3/2 G/ | ^F ^F2- ^F2 | %6
w: Le- jos de.a- quel ins-|tan- te _|le- jos de.a- quel lu-|gar _|el co- ra- zon a-|man- te _|
 G E3/2 F/ G3/2 G/ | ^F3- F2 | G G3/2 G/ D3/2 D/ | D D2- D2 | d d3/2 d/ c3/2 c/ | B3- B2 | %12
w: sien- to re- su- ci-|tar _|vuel- vo tu.i- ma- gen|be- lla _|en mi me- mo- ria.a|ver _|
 G G3/2 G/ G3/2 G/ | G G2- G2 | E G3/2 E/ G3/2 G/ | G ^F3/2 =E/ ^F2 |[K:G] B G3/2 B/ G3/2 G/ | %17
w: co- mo.un tem- blor de.es-|tre- lla _|muer- ta.al a- ma- ne-|cer _ _ _|Mai- te yo no te.ol-|
 B G3/2 B/ G3/2 B/ | _B B3/2 B/ G3/2 G/ | B3- B2 | D D3/2 F/ A3/2 A/ | G D3/2 G/ B3/2 G/ | %22
w: vi- do y nun- ca|nun- ca te.he de.ol- vi-|dar _|aun- que de mi te.a-|le jes le- guas de|
 A F3/2 F/ D3/2 C/ | C3- C2 | B G3/2 B/ G3/2 G/ | B G3/2 B/ B3/2 B/ | B B3/2 ^G/ ^G3/2 B/ | %27
w: tie- rra de tie- rra.y|mar _|Mai- te si.un di- a|sa- bes que.he muer- to.au-|sen- te de tu que-|
 A3- A2 | D D3/2 F/ A3/2 c/ | G D3/2 G/ B3/2 G/ | A A3/2 A/ F3/2 D/ | D3- D2 :| z5 | G B2- B2 | %34
w: rer _|del sue- ño de la|muer- te pa- ra que-|rer- te des- per- ta-|ré _||Mai- te _|
 G3 A2 | B3- B2 |] %36
w: Mai _|te _|
V:3
 x5 | x5 | x5 | x5 | x5 | x5 | x5 | x5 | x5 | x5 | x5 | x5 | x5 | x5 | x5 | x5 |[K:G] x5 | x5 | %18
 x5 | x5 | x5 | x5 | x5 | x5 | x5 | x5 | x5 | x5 | x5 | x5 | x5 | x5 :| x5 | x5 | G3- G2 | %35
 G3- !fermata!G2 |] %36
V:4
 B B3/2 B/ A3/2 A/ | G D2- D2 | d g3/2 d/ d3/2 d/ | d3- [dd]2 | e e3/2 B/ A3/2 G/ | A d2- d2 | %6
w: Le- jos de.a- quel ins-|tan- te _|le- jos de.a- quel lu-|gar _|el co- ra- zon a-|man- te _|
 c c3/2 c/ c3/2 ^c/ | d3- d2 | d d3/2 d/ c3/2 c/ | B B2- B2 | g d3/2 B/ A3/2 d/ | d3 G2 | %12
w: sien- to re- su- ci-|tar _|vuel- vo tu.i- ma- gen|be- lla _|en mi me- mo- ria.a|ver _|
 e c3/2 c/ B3/2 B/ | A c3/2 B/ A3/2 G/ | c e3/2 c/ B3/2 A/ | A c3/2 B/ A2 | %16
w: co- mo.un tem- blor de.es-|tre- lla de.es tre- lla|muer- ta.al a- ma- ne-|cer _ _ _|
[K:G] B d3/2 B/ B3/2 B/ | B d3/2 B/ B3/2 g/ | e3 e2 | g f3/2 e/ d2 | A A3/2 c/ e3/2 f/ | %21
w: Mai- te yo no te.ol-|vi- do y nun- ca|nun- ca|te.he de.ol- vi- dar|aun- que de mi te.a-|
 d g3/2 d/ B3/2 d/ | d e3/2 d/ c3/2 A/ | A A3/2 G/ F2 | B d3/2 B/ B3/2 B/ | B d3/2 B/ B3/2 B/ | %26
w: le jes le- guas de|tie- rra de tie- rra.y|mar tie- rra.y mar|Mai- te si.un di- a|sa- bes que.he muer- to.au-|
 e B3/2 c/ d3/2 B/ | c e3/2 e/ c2 | A c3/2 c/ e3/2 f/ | d g3/2 d/ B3/2 d/ | f e3/2 f/ e3/2 c/ | %31
w: sen- te de tu que-|rer tu que- rer|del sue- ño de la|muer- te pa- ra que-|rer- te des- per- ta-|
 B3- B2 :| e d2- d2 | z5 | e3- e2 | g3- !fermata!g2 |] %36
w: ré _|Mai- te _||Mai _|te _|
V:5
 B, B,3/2 B,/ A,3/2 A,/ | G, D,2- D,2 | G, B,3/2 G,/ ^F,3/2 D,/ | G,2 z/ D,/ G,3/2 F,/ | %4
w: Le- jos de.a- quel ins-|tan- te _|le- jos de.a- quel lu-|gar le _ jos|
 E, E,2- E,2 | D, ^F,3/2 A,/ C3/2 B,/ | A, G,3/2 F,/ E,2 | D, E,3/2 D,/ C,3/2 A,,/ | G,,3 z2 | %9
w: le- jos _|el co- ra- zón a-|man _ _ te|sien- to re- su- ci-|tar|
 G, G,3/2 D,/ F,3/2 E,/ | D, D,2- D, z | G, D,3/2 F,/ E,3/2 D,/ | C,2 z/ C,/ D,3/2 D,/ | %13
w: vuel- vo tu.i- ma- gen|be- lla _|en mi me- mo- ria.a|ver co- mo.un tem-|
 E, E,3/2 E,/ E,3/2 E,/ | C, C,3/2 C,/ E,3/2 E,/ | D,3- D,2 |[K:G] G, G,3/2 G,/ E,3/2 E,/ | %17
w: blor de.u- na.es- tre- lla|muer- ta.al a- ma- ne-|cer _|Mai- te yo no te.ol-|
 G, G,3/2 F,/ E,3/2 E,/ | C, C,3/2 C,/ C3/2 C/ | G,3 G,3/2 G,/ | G, F,3/2 E,/ D,2 | %21
w: vi- do y nun- ca|nun- ca te.he de.ol- vi-|dar nun- ca|te.he de.ol- vi- dar|
 G, B,3/2 G,/ D,3/2 G,/ | F, D,3/2 F,/ A,3/2 G,/ | F,2- F,/ E,/ D,2 | G, G,3/2 G,/ E,3/2 E,/ | %25
w: aun- que de mi te.a-|le- jes le- guas de|tie _ rra.y mar|May- te si.un di- a|
 G, G,3/2 G,/ G,3/2 G,/ | ^G, ^G,3/2 E,/ E,3/2 ^G,/ | A, E,3/2 C/ A,2 | F, A,3/2 A,/ F,3/2 D,/ | %29
w: sa bes que.he muer- to.au-|sen- te de tu que-|rer tu que- rer|del sue- ño de la|
 G, B,3/2 G,/ D,3/2 G,/ | D, D,3/2 D,/ D,3/2 D,/ | G,3- G,2 :| G, B,2- B,2 | z5 | C,E,>G, C2 | %35
w: muer- te pa- ra que-|rer- te des- per- ta-|ré _|Mai- te _||Ma- i- te Mai-|
 [G,D]3- !fermata![G,D]2 |] %36
w: te _|

